X:230
T:Farrier’s Reel TS.230
M:C|
L:1/8
Q:1/2=90
S:Thomas Sands’ MS,1810,Lincolnshire
R:reel
O:England;Lincolnshire
Z:vmp.Ruairidh Greig, 2011
K:A
A2cA eAcA|E2GB dBGE|A2cA eAcA|dBed cAA2:|
aece Aece|aece dBB2|aece Aece|dBed cAA2|
aece Aece|aece dBB2|agfe fedc|dBed cAA2H|]

